**kern	**kern
*staff2	*staff1
*clefF4	*clefG2
*k[b-e-]	*k[b-e-]
*M4/4	*M4/4
=32	=32
*^	*
2r	[1FF	(8FL
.	.	8G
.	.	8A
.	.	8B-J
4r	.	8cL
.	.	8d
4F	.	8e
.	.	8fJ
=33	=33	=33
4E	1FF]	8f#L
.	.	8g
4E-	.	8a-
.	.	8aJ
4D	.	8b-L
.	.	8b
4C	.	8cc
.	.	8cc#J
=34	=34	=34
4BB-	1r	8ddL
.	.	8ee-
4r	.	8ee
.	.	8ffJ
2r	.	8ff#L
.	.	8gg
.	.	8aa-
.	.	8aaJ
=35	=35	=35
(2d	1F	8bb-L
.	.	8aa
.	.	8ccc
.	.	8bb-J
2c) 2e-	.	8aaL
.	.	8gg
.	.	8ff
.	.	8ee-J
=36	=36	=36
4d	4B-	8ddL
.	.	8ee-
4r	4r	8ee
.	.	8ffJ
2r	2r	8ggL
.	.	8ff
.	.	8ee-
.	.	8ddJ
=37	=37	=37
(2D	1FF	8ccL
.	.	8b-
.	.	8a
.	.	8gJ
2E-)	.	8fL
.	.	8e-
.	.	8d
.	.	8cJ
*v	*v	*
=38	=38
4BB- 4D	8B-L
.	8FJ
8r	8D)
8BB-	8r
4BBB-	2r
4r	.
=	=
*-	*-
